public/avatar/hat/300.svg

<svg xmlns:xlink="http://www.w3.org/1999/xlink" height="92.9" width="100.7" xmlns="http://www.w3.org/2000/svg"><g transform="translate(38.65 49.75)"><use height="42" transform="translate(-26 -23.8)" width="48.1" xlink:href="#a"/><use height="42.6" transform="translate(-24.25 -21.7)" width="45.15" xlink:href="#b"/><use height="40.7" transform="translate(-24.25 -19.8)" width="45.15" xlink:href="#c"/><use height="37.1" transform="translate(-24.25 -21.7)" width="40.35" xlink:href="#d"/></g><defs><path d="m40.75 11.8 1.5-2.8.2-.5.9.2V9q-.55 5.45-1.9 10.7l-.05.15 1.05-.65 3-2.5.65-1 1 .2v.3q-.2.3-.7 2.1L45 22l-.85 2.2 2.1-1.2 1.85-1.1-.1 1q-.35 3.6-1.6 6.5-1.3 2.75-2.3 3.7l-2 1.65 1.35-.25 1.9-.4.4-.1 1.65-.4-1.15 1.2-3.5 3.3-1.3.85 3.9 1.65-5.5 1.4.05-.45-.4-2.1.1-1.25q-.05-.8-.85-.9l-.95-3.1q-4.15-6.65-11.05-6.65-2.95 0-7.25 2.75-3.3 2.05-4.85 3.8-.35.4-1.75 3.9l-.4.95v1.15l-.05.3-.65-.1-.4.45.05.05-.6.8-3.1-2.2 1.55-.65-1.2-.45q-1.15-.45-2.5-1.5-1.25-.9-2.5-2.5l-.75-1.2 1.4.4.25.1 1 .3 1.45.2 1.4.1H8.9q-1.4-.7-2.8-1.8-1.7-1.55-3.15-3.6-1.55-2.45-2.5-6L0 21.5l1.1.7.9.6 2.1 1.4 3 1.7 2.15 1-.15-.2q-1.55-1.85-3.25-5.3-1.65-3.45-2.35-7.7l.95-.3.05.1.25.3.85 1 3.15 3.45-.25-.85q-1.25-4.5-1.25-9.5V5.8l.85 1.6.25.4L9 8.9l2.25 3.5 2.45 3.5.65-3.3q.9-4.5 3.9-10.8l1 .4-.15.3-.1 1.2.1 8.6.35 2.75.95-2.45.1-1.4q.75-4.7 2-10.2l1 .2.35 1.6.4 2.25L26.85.7l.4-.7.35.8 1 2.1 2.25 5 .1.15.3-2.15 1-.1.25 1.7.75 4.2.75 5.2 2.25-5.65q1.2-3.4 1.25-5.5l1-.1.45 2.4.65 5.6 1.15-1.85m-.8 8.85.05.1h.05v-.05l-.1-.05m-7 .65H33l-.05-.05v.05M9.85 39.65v-.1l-.1.05.1.05" fill-rule="evenodd" id="e"/><path d="m43.25 17.1-.55 1.5-1.2 3-.45 1-.3.7-.05.05-.1.15 4.55-1.8q-.6 3.45-1.55 5.5-.75 1.75-2 3.1l-1.85 1.5-.55.2-.1.1H39l.1.3-.2-.35v.05l-.25 1.5h.05l.8.1 3.1-.4-2.85 2.3-1.65.9-.5.1.05-.35-2.35 3.6-.55.65q-.1 0 .1-.9.65-2.05.25-3.7L34 33.1l-.8-1.1.05-.7h-.05l-.7 2.4-2.4 6.55-.1-5.35q-.6-3.6-2.6-6.6l-1.7-2-.15.2-1.5.85-.5-.5-.65-.35-.15-.4-.5.6q-4.5 5.4-5.05 12.4l.1 1.65-.2-.45q-1.9-4.45-2.45-7.75l-.9 1.5v.05l-.5.9q-.25.55-.4 1.8-.25 1.8.2 4l.2.7.25 1.1-1.15-1.3-1.65-2.9-.3-.5v-.1l-.85-1.4H9.5l-.2-.35-.55-.15Q7.6 35.75 6.1 35q-1.45-.55-2.9-2.2l4.25.2 1.05-.65v-.15l-.1-.05.2-.55-1.25-.5-2.6-1.8Q3.5 28.15 2.2 26.4.8 24.3 0 21.7l3.6 2.25.25.15.35.2q3.95 2.15 5.75 1.55l-.1-.05-.65-.7q-1.3-1.4-2.7-3.6l-1.1-1.9q-1.2-2.4-2.05-5.4L3.3 14l-.1-.4 3.5 3.6.9.9q.8 2.25 1.9 4.3l.25.45q-.9-2.25-1.9-7.25-1.05-3.95-1.3-7.75V7.8l-.05-.3 1.85 2.8.05.05.45.75 1.05 1.6.6.85.2.25 1.8 1.8.2.15q.15-1.9.65-4.15.7-3.85 2.9-9l.1 7.7.65 4.8.05.15.5 2.05.05.3.4-2.3.9-2.75.2-2.15q.6-4.75 2.15-9.15L22.4 5.1l.45-.95.05.05L25.35 0l1.5 3.1q1.25 2.65 1.9 4.6l.6 1.5.65-2.5.7 4 .45 2.95 1.35 2.9.85-2 1.65-3.8 1.25-3.9.6 5.5.2 1.75q2.05-2.3 3.3-4.8l-.25 2.15-.1.25-.9 4.2-1.25 4.1.5-.3 3.95-2.6v-.05l.45-.35.1-.05.85-.65-.45 1.1m-29.8 11.35.05.05h.05l-.1-.05m-5.95 8.8 1.8-.35.35.7.1.2-.4.95-1.85-1.5M35.35 26.3l.1-.05h-.05l-.05.05m1.75 11.2 1.25-.45 2.55 1.25-2.9 1.1-.9-1.9" fill-rule="evenodd" id="f"/><path d="m23 20.3.15.1.7-.15Q20.1 7.85 21.1 0l6.4 19.6.1.4-1.35.15 3 .1-3.45.1-.4.25-.9 1.75 1.65-1 2.75 1.4q2.9 2.05 3.35 5.4l-2.15 10.2L30 33q-.6-3.6-2.6-6.6l-1.7-2-.15.2-1.5.85-.5-.5-.65-.35-.15-.4-.2.25.4-.5-.05.1.45-.55-.45-1.2-.7-.6-.35-.1q-.85-.1-2.1.75l-1.9 3.5-1.25 4.75.5 7.8q-3.1-7.35-2.6-11.45l-.9 1-.1-1.15.05 1.2-1.8 2q-1.9 5.25 1.75 10.7l-1.15-1.3-1.65-2.9L9 33.6l-.8-1.3.3-1.3q.3-1 1.25-2.6.6-1 2.05-1.55-1.25.35-1.9 1.3-3 .1-9.9-8.35l3.9 2.45Q8.15 24.6 10 23.9l1.55.2 1.95 2.5 1.2-.7.3-.95.15-.3 1.6-2.75-1 1.45Q14 23.6 6.55 5.9l.75.9 1.05 1.6 2.35 3.5 1.8 1.8q2.65 2.05 3.95 3.65 1.3 1.6 2.95 2.65l-.1.05 3.7.25m15.8-8.65.65-1.3q-2.15 5.8-7.2 11.25l-1.9-1.25q5.7-3.75 8.45-8.7m4.9 2.45L41 20.75l-1.25.35 2.55-5.95 1.4-1.05m-12.45 2.75-2.1-9.5 3.7 8.15-1.6 1.35m-18 22.75.25 1.1-.45-1.8.2.7m.5-7.4-.5.9q-.25.55-.4 1.8.1-1.1.45-2.05l.45-.7v.05m22.6-6.8 1.25-2.65 7.55-2.95q-4.7 7.8-7.05 7l-1.75-1.4m-1.9 1.2q1.2.7 1.95 1.8 2.25 3.65-1.65 10.2-.1 0 .1-.9.65-2.05.25-3.7L34 31.2l-.8-1.1.1-4.05h.05v.05l1.1.5" fill="#272727" fill-rule="evenodd" id="g"/><path d="m39.45 12.25-.25.55-.4.75-1.9 2.85q-2.55 3.2-6.55 5.85l.35.2-2.9-.35-.55-.2-1.5.35.45-.2 1.05-.15-.4-.15.6-.35-.3-.95.55.85q9.35-5.4 12.65-12l-.25 2.15-.1.25.35-2.4-.9 2.95m-18.5-10.1.1.35Q20.2 10.35 24 22.7l-.15.05-.85-.55-3.8-.25v-.2q-1.55-1-2.75-2.5-1.25-1.55-3.75-3.5.15-1.9.65-4.15.7-3.85 2.9-9-2.2 9.85-1 15.15l3 2.9.25-.5.45.95.2.4-.4-3.5q-.1-3.65.35-7.6.55-4.25 1.85-8.25m9.25 9.4-1.05-2.3 2.2 9.7-1.7 1.1-2.15-8.65-.75 4.8L25.35 0l4.85 11.55m-9.05 12 .05.05-.15.05.1-.1m5.15.45 2.15 1.95q2.25 2.45 2.55 5.2-.85-3.4-5.7-6.65l1-.5m-23-10q3 6.2 7.7 11.75l-1 .05-.8-.7q-1.3-1.35-2.7-3.6l-1.1-1.9-.5-1.1-1.55-4.3-.05-.2m.3 9.95.25.15.35.2-.3-.15-.3-.2m6.45-.4q-1-2.1-2.2-7.95-1.05-3.95-1.3-7.75l2.55 7.9q2.2 5.8 4.15 8.9l.65.9 1.1 1.3.8-1.7-1.05 2.6-1.25.75h.05l-1.2-1.25q-1.35-1.6-2.3-3.7m8.3.1q-2.25 3-2.6 10.25-.75-6.25.85-9.75 1.65-3.5 1.75-.5M4.75 29.3Q3.5 28.15 2.2 26.4.8 24.3 0 21.7q6.9 8.45 9.9 8.35.5-.75 1.4-1.1L8.5 32.2l-.1-.05.2-.55-1.25-.5-2.6-1.8m5.85 1.35 1-.15q-1.3.55-1.35 3.65l.25 2.95q-1.5-2.6-.85-4.8l.95-1.65M8.5 34.7l.5.8.3.55-.55-.15Q7.6 35.75 6.1 35q-1.45-.55-2.9-2.2l5.3 1.95v-.05m24.85-5.45L34.9 31q1.45 2.25 1.2 4.9-.75-4-3.1-4.65l.35-2" fill="#5b5b5b" fill-rule="evenodd" id="h"/><use height="42" width="48.1" xlink:href="#e" id="a"/><use height="42.6" width="45.15" xlink:href="#f" id="b"/><use height="40.7" width="45.15" xlink:href="#g" id="c"/><use height="37.1" width="40.35" xlink:href="#h" id="d"/></defs></svg>

<?xml version="1.0" encoding="UTF-8" standalone="no"?>
<svg xmlns:xlink="http://www.w3.org/1999/xlink" height="92.9px" width="100.7px" xmlns="http://www.w3.org/2000/svg">
  <g transform="matrix(1.0, 0.0, 0.0, 1.0, 38.65, 49.75)">
    <use height="42.0" transform="matrix(1.0, 0.0, 0.0, 1.0, -26.0, -23.8)" width="48.1" xlink:href="#sprite0"/>
    <use height="42.6" transform="matrix(1.0, 0.0, 0.0, 1.0, -24.25, -21.7)" width="45.15" xlink:href="#sprite1"/>
    <use height="40.7" transform="matrix(1.0, 0.0, 0.0, 1.0, -24.25, -19.8)" width="45.15" xlink:href="#sprite2"/>
    <use height="37.1" transform="matrix(1.0, 0.0, 0.0, 1.0, -24.25, -21.7)" width="40.35" xlink:href="#sprite3"/>
  </g>
  <defs>
    <g id="sprite0" transform="matrix(1.0, 0.0, 0.0, 1.0, 0.0, 0.0)">
      <use height="42.0" transform="matrix(1.0, 0.0, 0.0, 1.0, 0.0, 0.0)" width="48.1" xlink:href="#shape0"/>
    </g>
    <g id="shape0" transform="matrix(1.0, 0.0, 0.0, 1.0, 0.0, 0.0)">
      <path d="M40.75 11.8 L42.25 9.0 42.45 8.5 43.35 8.7 43.35 9.0 Q42.8 14.45 41.45 19.7 L41.4 19.85 42.45 19.2 45.45 16.7 46.1 15.7 47.1 15.9 47.1 16.2 Q46.9 16.5 46.4 18.3 L45.0 22.0 44.15 24.2 46.25 23.0 48.1 21.9 48.0 22.9 Q47.65 26.5 46.4 29.4 45.1 32.15 44.1 33.1 L42.1 34.75 43.45 34.5 45.35 34.1 45.75 34.0 47.4 33.6 46.25 34.8 42.75 38.1 41.45 38.95 45.35 40.6 39.85 42.0 39.9 41.55 39.5 39.45 39.6 38.2 Q39.55 37.4 38.75 37.3 L37.8 34.2 Q33.65 27.55 26.75 27.55 23.8 27.55 19.5 30.3 16.2 32.35 14.65 34.1 14.3 34.5 12.9 38.0 L12.5 38.95 12.5 40.1 12.45 40.4 11.8 40.3 11.4 40.75 11.45 40.8 10.85 41.6 7.75 39.4 9.3 38.75 8.1 38.3 Q6.95 37.85 5.6 36.8 4.35 35.9 3.1 34.3 L2.35 33.1 3.75 33.5 4.0 33.6 5.0 33.9 6.45 34.1 7.85 34.2 8.9 34.2 Q7.5 33.5 6.1 32.4 4.4 30.85 2.95 28.8 1.4 26.35 0.45 22.8 L0.0 21.5 1.1 22.2 2.0 22.8 4.1 24.2 7.1 25.9 9.25 26.9 9.1 26.7 Q7.55 24.85 5.85 21.4 4.2 17.95 3.5 13.7 L4.45 13.4 4.5 13.5 4.75 13.8 5.6 14.8 8.75 18.25 8.5 17.4 Q7.25 12.9 7.25 7.9 L7.25 5.8 8.1 7.4 8.35 7.8 9.0 8.9 11.25 12.4 13.7 15.9 14.35 12.6 Q15.25 8.1 18.25 1.8 L19.25 2.2 19.1 2.5 19.0 3.7 19.1 12.3 19.45 15.05 20.4 12.6 20.5 11.2 Q21.25 6.5 22.5 1.0 L23.5 1.2 23.85 2.8 24.25 5.05 26.85 0.7 27.25 0.0 27.6 0.8 28.6 2.9 30.85 7.9 30.95 8.05 31.25 5.9 32.25 5.8 32.5 7.5 33.25 11.7 34.0 16.9 36.25 11.25 Q37.45 7.85 37.5 5.75 L38.5 5.65 38.95 8.05 39.6 13.65 40.75 11.8 M39.95 20.65 L40.0 20.75 40.05 20.75 40.05 20.7 39.95 20.65 M32.95 21.3 L33.0 21.3 32.95 21.25 32.95 21.3 M9.85 39.65 L9.85 39.55 9.75 39.6 9.85 39.65" fill="#000000" fill-rule="evenodd" stroke="none"/>
    </g>
    <g id="sprite1" transform="matrix(1.0, 0.0, 0.0, 1.0, 0.0, 0.0)">
      <use height="42.6" transform="matrix(1.0, 0.0, 0.0, 1.0, 0.0, 0.0)" width="45.15" xlink:href="#shape1"/>
    </g>
    <g id="shape1" transform="matrix(1.0, 0.0, 0.0, 1.0, 0.0, 0.0)">
      <path d="M43.25 17.1 L42.7 18.6 41.5 21.6 41.05 22.6 40.75 23.3 40.7 23.35 40.6 23.5 45.15 21.7 Q44.55 25.15 43.6 27.2 42.85 28.95 41.6 30.3 L39.75 31.8 39.2 32.0 39.1 32.1 39.0 32.1 39.1 32.4 38.9 32.05 38.9 32.1 38.65 33.6 38.7 33.6 39.5 33.7 42.6 33.3 39.75 35.6 38.1 36.5 37.6 36.6 37.65 36.25 35.3 39.85 34.75 40.5 Q34.65 40.5 34.85 39.6 35.5 37.55 35.1 35.9 L34.0 33.1 33.2 32.0 33.25 31.3 33.2 31.3 32.5 33.7 30.1 40.25 30.0 34.9 Q29.4 31.3 27.4 28.3 L25.7 26.3 25.55 26.5 24.05 27.35 23.55 26.85 22.9 26.5 22.75 26.1 22.25 26.7 Q17.75 32.1 17.2 39.1 L17.3 40.75 17.1 40.3 Q15.2 35.85 14.65 32.55 L13.75 34.05 13.75 34.1 13.25 35.0 Q13.0 35.55 12.85 36.8 12.6 38.6 13.05 40.8 L13.25 41.5 13.5 42.6 12.35 41.3 10.7 38.4 10.4 37.9 10.4 37.8 9.55 36.4 9.5 36.4 9.3 36.05 8.75 35.9 Q7.6 35.75 6.1 35.0 4.65 34.45 3.2 32.8 L7.45 33.0 8.5 32.35 8.5 32.2 8.4 32.15 8.6 31.6 7.35 31.1 4.75 29.3 Q3.5 28.15 2.2 26.4 0.8 24.3 0.0 21.7 L3.6 23.95 3.85 24.1 4.2 24.3 Q8.15 26.45 9.95 25.85 L9.85 25.8 9.2 25.1 Q7.9 23.7 6.5 21.5 L5.4 19.6 Q4.2 17.2 3.35 14.2 L3.3 14.0 3.2 13.6 6.7 17.2 7.6 18.1 Q8.4 20.35 9.5 22.4 L9.75 22.85 Q8.85 20.6 7.85 15.6 6.8 11.65 6.55 7.85 L6.55 7.8 6.5 7.5 8.35 10.3 8.4 10.35 8.85 11.1 9.9 12.7 10.5 13.55 10.7 13.8 12.5 15.6 12.7 15.75 Q12.85 13.85 13.35 11.6 14.05 7.75 16.25 2.6 L16.35 10.3 17.0 15.1 17.05 15.25 17.55 17.3 17.6 17.6 18.0 15.3 18.9 12.55 19.1 10.4 Q19.7 5.65 21.25 1.25 L22.4 5.1 22.85 4.15 22.9 4.2 25.35 0.0 26.85 3.1 Q28.1 5.75 28.75 7.7 L29.35 9.2 30.0 6.7 30.7 10.7 31.15 13.65 32.5 16.55 33.35 14.55 35.0 10.75 36.25 6.85 36.85 12.35 37.05 14.1 Q39.1 11.8 40.35 9.3 L40.1 11.45 40.0 11.7 39.1 15.9 37.85 20.0 38.35 19.7 42.3 17.1 42.3 17.05 42.75 16.7 42.85 16.65 43.7 16.0 43.25 17.1 M13.45 28.45 L13.5 28.5 13.55 28.5 13.45 28.45 M7.5 37.25 L9.3 36.9 9.65 37.6 9.75 37.8 9.35 38.75 7.5 37.25 M35.35 26.3 L35.45 26.25 35.4 26.25 35.35 26.3 M37.1 37.5 L38.35 37.05 40.9 38.3 38.0 39.4 37.1 37.5" fill="#000000" fill-rule="evenodd" stroke="none"/>
    </g>
    <g id="sprite2" transform="matrix(1.0, 0.0, 0.0, 1.0, 0.0, 0.0)">
      <use height="40.7" transform="matrix(1.0, 0.0, 0.0, 1.0, 0.0, 0.0)" width="45.15" xlink:href="#shape2"/>
    </g>
    <g id="shape2" transform="matrix(1.0, 0.0, 0.0, 1.0, 0.0, 0.0)">
      <path d="M23.0 20.3 L23.15 20.4 23.85 20.25 Q20.1 7.85 21.1 0.0 L27.5 19.6 27.6 20.0 26.25 20.15 29.25 20.25 25.8 20.35 25.4 20.6 24.5 22.35 26.15 21.35 28.9 22.75 Q31.8 24.8 32.25 28.15 L30.1 38.35 30.0 33.0 Q29.4 29.4 27.4 26.4 L25.7 24.4 25.55 24.6 24.05 25.45 23.55 24.95 22.9 24.6 22.75 24.2 22.55 24.45 22.95 23.95 22.9 24.05 23.35 23.5 22.9 22.3 22.2 21.7 21.85 21.6 Q21.0 21.5 19.75 22.35 L17.85 25.85 16.6 30.6 17.1 38.4 Q14.0 31.05 14.5 26.95 L13.6 27.95 13.5 26.8 13.55 28.0 11.75 30.0 Q9.85 35.25 13.5 40.7 L12.35 39.4 10.7 36.5 9.0 33.6 8.2 32.3 8.5 31.0 Q8.8 30.0 9.75 28.4 10.35 27.4 11.8 26.85 10.55 27.2 9.9 28.15 6.9 28.25 0.0 19.8 L3.9 22.25 Q8.15 24.6 10.0 23.9 L11.55 24.1 13.5 26.6 14.7 25.9 15.0 24.95 15.15 24.65 16.75 21.9 15.75 23.35 Q14.0 23.6 6.55 5.9 L7.3 6.8 8.35 8.4 10.7 11.9 12.5 13.7 Q15.15 15.75 16.45 17.35 17.75 18.95 19.4 20.0 L19.3 20.05 23.0 20.3 M38.8 11.65 L39.45 10.35 Q37.3 16.15 32.25 21.6 L30.35 20.35 Q36.05 16.6 38.8 11.65 M43.7 14.1 L41.0 20.75 39.75 21.1 42.3 15.15 43.7 14.1 M31.25 16.85 L29.15 7.35 32.85 15.5 31.25 16.85 M13.25 39.6 L13.5 40.7 13.05 38.9 13.25 39.6 M13.75 32.2 L13.25 33.1 Q13.0 33.65 12.85 34.9 12.95 33.8 13.3 32.85 L13.75 32.15 13.75 32.2 M36.35 25.4 L37.6 22.75 45.15 19.8 Q40.45 27.6 38.1 26.8 L36.35 25.4 M34.45 26.6 Q35.65 27.3 36.4 28.4 38.65 32.05 34.75 38.6 34.65 38.6 34.85 37.7 35.5 35.65 35.1 34.0 L34.0 31.2 33.2 30.1 33.3 26.05 33.35 26.05 33.35 26.1 34.45 26.6" fill="#272727" fill-rule="evenodd" stroke="none"/>
    </g>
    <g id="sprite3" transform="matrix(1.0, 0.0, 0.0, 1.0, 0.0, 0.0)">
      <use height="37.1" transform="matrix(1.0, 0.0, 0.0, 1.0, 0.0, 0.0)" width="40.35" xlink:href="#shape3"/>
    </g>
    <g id="shape3" transform="matrix(1.0, 0.0, 0.0, 1.0, 0.0, 0.0)">
      <path d="M39.45 12.25 L39.2 12.8 38.8 13.55 36.9 16.4 Q34.35 19.6 30.35 22.25 L30.7 22.45 27.8 22.1 27.25 21.9 25.75 22.25 26.2 22.05 27.25 21.9 26.85 21.75 27.45 21.4 27.15 20.45 27.7 21.3 Q37.05 15.9 40.35 9.3 L40.1 11.45 40.0 11.7 40.35 9.3 39.45 12.25 M20.95 2.15 L21.05 2.5 Q20.2 10.35 24.0 22.7 L23.85 22.75 23.0 22.2 19.2 21.95 19.2 21.75 Q17.65 20.75 16.45 19.25 15.2 17.7 12.7 15.75 12.85 13.85 13.35 11.6 14.05 7.75 16.25 2.6 14.05 12.45 15.25 17.75 L18.25 20.65 18.5 20.15 18.95 21.1 19.15 21.5 18.75 18.0 Q18.65 14.35 19.1 10.4 19.65 6.15 20.95 2.15 M30.2 11.55 L29.15 9.25 31.35 18.95 29.65 20.05 27.5 11.4 26.75 16.2 25.35 0.0 30.2 11.55 M21.15 23.55 L21.2 23.6 21.05 23.65 21.15 23.55 M26.3 24.0 L28.45 25.95 Q30.7 28.4 31.0 31.15 30.15 27.75 25.3 24.5 L26.3 24.0 M3.3 14.0 Q6.3 20.2 11.0 25.75 L10.0 25.8 9.2 25.1 Q7.9 23.75 6.5 21.5 L5.4 19.6 4.9 18.5 3.35 14.2 3.3 14.0 M3.6 23.95 L3.85 24.1 4.2 24.3 3.9 24.15 3.6 23.95 M10.05 23.55 Q9.05 21.45 7.85 15.6 6.8 11.65 6.55 7.85 L9.1 15.75 Q11.3 21.55 13.25 24.65 L13.9 25.55 15.0 26.85 15.8 25.15 14.75 27.75 13.5 28.5 13.55 28.5 12.35 27.25 Q11.0 25.65 10.05 23.55 M18.35 23.65 Q16.1 26.65 15.75 33.9 15.0 27.65 16.6 24.15 18.25 20.65 18.35 23.65 M4.75 29.3 Q3.5 28.15 2.2 26.4 0.8 24.3 0.0 21.7 6.9 30.15 9.9 30.05 10.4 29.3 11.3 28.95 L8.5 32.2 8.4 32.15 8.6 31.6 7.35 31.1 4.75 29.3 M10.6 30.65 L11.6 30.5 Q10.3 31.05 10.25 34.15 L10.5 37.1 Q9.0 34.5 9.65 32.3 L10.6 30.65 M8.5 34.7 L9.0 35.5 9.3 36.05 8.75 35.9 Q7.6 35.75 6.1 35.0 4.65 34.45 3.2 32.8 L8.5 34.75 8.5 34.7 M33.35 29.25 L34.9 31.0 Q36.35 33.25 36.1 35.9 35.35 31.9 33.0 31.25 L33.35 29.25" fill="#5b5b5b" fill-rule="evenodd" stroke="none"/>
    </g>
  </defs>
</svg>
